X:193
T:Drunken Friday. Ru2.193
%%VWML:RutherfordVol2-2249-p97-0
F:http://www.vwml.org/record/RutherfordVol2/2249/p97
Z:vmp.Ruairidh Greig 2015 www.village-music-project.org.uk
M:C
L:1/8
Q:1/4=100
K:D
A|d/d/d "tr"f>e dAAB|cdcA G/F/E/D/ CD|d/d/d "tr"f>e dAAB|cGcE D/D/D D:|
|:A|(F/G/A) FD (F/G/A) dF|(E/F/G) EC (E/F/G) cE|1(F/G/A) FD F/G/A dF|
G/F/E/D/ CE D/D/D D:|2dBcA BGcE|CEcE D/D/D D||
W:Foot it & cast off 2 Couples .| Foot it & cast up again
W:gallop down 2 Couples up again & cast off .|. Right
W:Hand & Left with the top Couple :|
T:Miss McKenzie's Reel. Ru2.194
B:RUTHERFORD Complete Collection of 200 Country Dances Vol.2; 1759.
Z:vmp.Ruairidh Greig 2015 www.village-music-project.org.uk
M:C|
L:1/8
R:Reel
Q:1/4=100
K:Amix
f|e2Ac/d/ eAcA|dfec B/B/B Bf|e2Ac/d/ eAcA|dfed A/A/A A:|
|:c|(A/B/c/d/ e)(f/^g/) abae|faec B/B/B Bc|(A/B/c/d/ e)f/^g/ abae|faec A/A/A A:|
W:Hey contrary Sides .| Hey on your own
W:Side :| Cross over 2 Couples .|. Lead up
W:to the Top, foot it & cast off :||: Turn cor
W:ners & turn yr. own Partner .|| Turn the
W:other Corners & turn yr. Partner :|| Hands
W:round all six :||. Right Hand & Left at top :|
